src/assets/images/svg/line-notice.svg

<svg xmlns="http://www.w3.org/2000/svg" viewBox="0 0 24 24"><defs><style>.cls-1{fill:none;}</style></defs><title>04</title><g id="line-notice"><rect class="cls-1" width="24" height="24"/><path d="M12.6,4.92,7.2,8.62H4.5a1,1,0,0,0-1,1v4.7a1,1,0,0,0,1,1H7.1L12.5,19a1,1,0,0,0,1.6-.9V5.82A1,1,0,0,0,12.6,4.92Zm.1,12.3-5-3.4H5.1v-3.7H7.7l5-3.4Zm7.6-6.6a2.73,2.73,0,0,0-.6-1.2,3.13,3.13,0,0,0-1.1-.9,3.26,3.26,0,0,0-1.4-.4,1.47,1.47,0,0,0-1.5,1.5v4.7a1.47,1.47,0,0,0,1.5,1.5,2.3,2.3,0,0,0,1.4-.4,4.81,4.81,0,0,0,1.1-.9,3.38,3.38,0,0,0,.6-1.2,5.9,5.9,0,0,0,.2-1.4A6.88,6.88,0,0,0,20.3,10.62Zm-1.5,2.3c0,.1-.1.2-.1.3s-.2.3-.3.5a2.65,2.65,0,0,1-.6.5,1.45,1.45,0,0,1-.7.2V9.62a1.85,1.85,0,0,1,.7.2,2.65,2.65,0,0,1,.6.5,2.19,2.19,0,0,1,.3.5c0,.1.1.2.1.3a2.77,2.77,0,0,1,.1.9A2.77,2.77,0,0,1,18.8,12.92Z"/></g></svg>

<svg width="24" height="24" viewBox="0 0 24 24" fill="none" xmlns="http://www.w3.org/2000/svg">
<path d="M12.6 4.9L7.2 8.6H4.5C3.9 8.6 3.5 9.1 3.5 9.6V14.3C3.5 14.9 4 15.3 4.5 15.3H7.1L12.5 19C13.2 19.5 14.1 19 14.1 18.1V5.8C14.2 5 13.3 4.5 12.6 4.9ZM12.7 17.2L7.7 13.8H5.1V10.1H7.7L12.7 6.7V17.2ZM20.3 10.6C20.2 10.2 20 9.7 19.7 9.4C19.4 9 19 8.7 18.6 8.5C18.2 8.3 17.7 8.1 17.2 8.1C16.3 8.1 15.7 8.8 15.7 9.6V14.3C15.7 15.2 16.4 15.8 17.2 15.8C17.7 15.8 18.2 15.7 18.6 15.4C19 15.2 19.4 14.8 19.7 14.5C20 14.1 20.2 13.7 20.3 13.3C20.4 12.9 20.5 12.4 20.5 11.9C20.5 11.5 20.4 11.1 20.3 10.6ZM18.8 12.9C18.8 13 18.7 13.1 18.7 13.2C18.6 13.4 18.5 13.5 18.4 13.7C18.2 13.9 18 14.1 17.8 14.2C17.6 14.3 17.4 14.4 17.1 14.4V9.6C17.3 9.6 17.6 9.7 17.8 9.8C18 9.9 18.2 10.1 18.4 10.3C18.5 10.4 18.6 10.6 18.7 10.8C18.7 10.9 18.8 11 18.8 11.1C18.9 11.4 18.9 11.7 18.9 12C18.9 12.3 18.9 12.6 18.8 12.9Z" fill="black"/>
</svg>
